Simply-Cyan-Circles/scalable/apps/qtdbusviewer.svg

<svg xmlns="http://www.w3.org/2000/svg" width="48" height="48" viewBox="0 0 12.7 12.7"><path d="M6.34.07a6.29 6.29 0 0 0-6.29 6.3 6.29 6.29 0 0 0 6.3 6.28 6.29 6.29 0 0 0 2.52-.53H6.66v-.3a5.4 5.4 0 0 1-.33 0 5.4 5.4 0 0 1-5.41-5.4A5.4 5.4 0 0 1 6.32 1a5.4 5.4 0 0 1 5.41 5.4 5.4 5.4 0 0 1-.68 2.63l.67.58a6.29 6.29 0 0 0 .91-3.26A6.29 6.29 0 0 0 6.34.07zm-1.96 2.4c-.42 0-.78.07-1.1.2a2.03 2.03 0 0 0-1.22 1.38 3.94 3.94 0 0 0-.03 2.1c.07.3.2.56.36.79a2.05 2.05 0 0 0 1.46.86c.02.3.1.57.2.78.07.12.16.2.24.3l.85-.75c-.03-.11-.06-.21-.07-.36a2.14 2.14 0 0 0 1.32-.9c.15-.22.26-.48.33-.77a3.61 3.61 0 0 0-.04-2.04 2.3 2.3 0 0 0-.47-.85c-.21-.23-.47-.41-.78-.54-.3-.13-.65-.2-1.05-.2zm0 .48a1.05 1.05 0 0 1 .96.58c.1.2.17.42.21.7a5.79 5.79 0 0 1 0 1.86c-.04.28-.11.5-.21.7a1.05 1.05 0 0 1-.96.58c-.23 0-.42-.05-.58-.15-.16-.1-.29-.24-.39-.43a2.3 2.3 0 0 1-.21-.7 5.79 5.79 0 0 1 0-1.87c.04-.27.11-.5.21-.69.1-.19.23-.33.39-.42.16-.1.35-.16.58-.16zm3.61 0c-.07.33-.18.57-.33.73a.93.93 0 0 1-.72.3v.38h.55v2.33c0 .22.02.4.07.54a.9.9 0 0 0 .22.36c.1.09.2.15.34.2.13.03.28.05.44.05a3.37 3.37 0 0 0 .88-.12l.16-.06V7.2l-.25.05-.27.02c-.17 0-.3-.06-.37-.16-.08-.1-.1-.26-.1-.48V4.36h.92v-.5H8.6v-.9H8zm-1.36 4.2L4.64 8.9l2 1.74v-1h3.48V8.16H6.63v-1zm3.96 2v1H7.1v1.49h3.49v1l1.99-1.75-2-1.74z" fill="#5beedc"/></svg>

<?xml version="1.0" encoding="UTF-8" standalone="no"?>
<svg
   xmlns:dc="http://purl.org/dc/elements/1.1/"
   xmlns:cc="http://creativecommons.org/ns#"
   xmlns:rdf="http://www.w3.org/1999/02/22-rdf-syntax-ns#"
   xmlns:svg="http://www.w3.org/2000/svg"
   xmlns="http://www.w3.org/2000/svg"
   xmlns:sodipodi="http://sodipodi.sourceforge.net/DTD/sodipodi-0.dtd"
   xmlns:inkscape="http://www.inkscape.org/namespaces/inkscape"
   width="48"
   height="48"
   viewBox="0 0 12.7 12.7"
   version="1.1"
   id="svg4"
   sodipodi:docname="qtdbusviewer.svg"
   inkscape:version="0.92.4 (5da689c313, 2019-01-14)">
  <metadata
     id="metadata10">
    <rdf:RDF>
      <cc:Work
         rdf:about="">
        <dc:format>image/svg+xml</dc:format>
        <dc:type
           rdf:resource="http://purl.org/dc/dcmitype/StillImage" />
        <dc:title></dc:title>
      </cc:Work>
    </rdf:RDF>
  </metadata>
  <defs
     id="defs8" />
  <sodipodi:namedview
     pagecolor="#ffffff"
     bordercolor="#666666"
     borderopacity="1"
     objecttolerance="10"
     gridtolerance="10"
     guidetolerance="10"
     inkscape:pageopacity="0"
     inkscape:pageshadow="2"
     inkscape:window-width="1087"
     inkscape:window-height="480"
     id="namedview6"
     showgrid="false"
     inkscape:zoom="4.9166667"
     inkscape:cx="2.1355932"
     inkscape:cy="24"
     inkscape:window-x="0"
     inkscape:window-y="25"
     inkscape:window-maximized="0"
     inkscape:current-layer="svg4" />
  <path
     d="m 6.34,0.07 a 6.29,6.29 0 0 0 -6.29,6.3 6.29,6.29 0 0 0 6.3,6.28 6.29,6.29 0 0 0 2.52,-0.53 H 6.66 v -0.3 a 5.4,5.4 0 0 1 -0.33,0 A 5.4,5.4 0 0 1 0.92,6.42 5.4,5.4 0 0 1 6.32,1 5.4,5.4 0 0 1 11.73,6.4 5.4,5.4 0 0 1 11.05,9.03 l 0.67,0.58 A 6.29,6.29 0 0 0 12.63,6.35 6.29,6.29 0 0 0 6.34,0.07 Z m -1.96,2.4 c -0.42,0 -0.78,0.07 -1.1,0.2 A 2.03,2.03 0 0 0 2.06,4.05 3.94,3.94 0 0 0 2.03,6.15 c 0.07,0.3 0.2,0.56 0.36,0.79 A 2.05,2.05 0 0 0 3.85,7.8 c 0.02,0.3 0.1,0.57 0.2,0.78 0.07,0.12 0.16,0.2 0.24,0.3 L 5.14,8.13 C 5.11,8.02 5.08,7.92 5.07,7.77 A 2.14,2.14 0 0 0 6.39,6.87 C 6.54,6.65 6.65,6.39 6.72,6.1 A 3.61,3.61 0 0 0 6.68,4.06 2.3,2.3 0 0 0 6.21,3.21 C 6,2.98 5.74,2.8 5.43,2.67 5.13,2.54 4.78,2.47 4.38,2.47 Z m 0,0.48 a 1.05,1.05 0 0 1 0.96,0.58 c 0.1,0.2 0.17,0.42 0.21,0.7 a 5.79,5.79 0 0 1 0,1.86 C 5.51,6.37 5.44,6.59 5.34,6.79 A 1.05,1.05 0 0 1 4.38,7.37 C 4.15,7.37 3.96,7.32 3.8,7.22 3.64,7.12 3.51,6.98 3.41,6.79 A 2.3,2.3 0 0 1 3.2,6.09 5.79,5.79 0 0 1 3.2,4.22 C 3.24,3.95 3.31,3.72 3.41,3.53 3.51,3.34 3.64,3.2 3.8,3.11 3.96,3.01 4.15,2.95 4.38,2.95 Z m 3.61,0 C 7.92,3.28 7.81,3.52 7.66,3.68 a 0.93,0.93 0 0 1 -0.72,0.3 v 0.38 h 0.55 v 2.33 c 0,0.22 0.02,0.4 0.07,0.54 a 0.9,0.9 0 0 0 0.22,0.36 c 0.1,0.09 0.2,0.15 0.34,0.2 0.13,0.03 0.28,0.05 0.44,0.05 A 3.37,3.37 0 0 0 9.44,7.72 L 9.6,7.66 V 7.2 L 9.35,7.25 9.08,7.27 C 8.91,7.27 8.78,7.21 8.71,7.11 8.63,7.01 8.61,6.85 8.61,6.63 V 4.36 H 9.53 V 3.86 H 8.6 V 2.96 H 8 Z m -1.36,4.2 -1.99,1.75 2,1.74 v -1 h 3.48 V 8.16 H 6.63 v -1 z m 3.96,2 v 1 H 7.1 v 1.49 h 3.49 v 1 l 1.99,-1.75 -2,-1.74 z"
     id="path2"
     inkscape:connector-curvature="0"
     style="fill:#5beedc" />
</svg>
